X: 21
T: N'o\'es vous point le coc / Cocq en l'orge
N: Derived from Ano3027-Noes_vous_point_le_coc__Cocq_en_lorge--Escorial_B.krn
C: Anonymous
%%abc-version 2.0
%%abcx-abcm2ps-target-version 5.9.1 (29 Sep 2008)
%%abc-creator hum2abc beta
%%abcx-conversion-date 2019/02/16 20:18:27
%%abc-edited-by Jesse Rodin
%%abc-edited-by Chris Gage 03-05-2015
%%abcx-initial-encoding-date 2015/03/14/
%%humdrum-veritas 2960384116
%%humdrum-veritas-data 2637023048
%%linebreak <none>
%%barnumbers 0
L: 1/4
M: 2/1
Q: 1/2=120
%%staves [1 2 3 4]
V: 1 clef=treble
V: 2 clef=treble-8
V: 3 clef=treble-8
V: 4 clef=treble-8
K: F
[V:1] A8- | 
[V:2] e8- | 
[V:3] A8 | 
[V:4] z8 | 
[V:1] A4G4- | 
[V:2] e8 | 
[V:3] c8 | 
[V:4] z8 | 
[V:1] G2F2F4 | 
[V:2] c8 | 
[V:3] A4A4 | 
[V:4] z8 | 
[V:1] E6D2 | 
[V:2] B8 | 
[V:3] G4G4 | 
[V:4] z8 | 
[V:1] F8 | 
[V:2] c8 | 
[V:3] F8- | 
[V:4] A8 | 
[V:1] A6=B2 | 
[V:2] f8 | 
[V:3] F8 | 
[V:4] c8 | 
[V:1] c4c4 | 
[V:2] e4f4 | 
[V:3] z8 | 
[V:4] A4A4 | 
[V:1] =B6A2 | 
[V:2] g2e4d2 | 
[V:3] z8 | 
[V:4] G4G4 | 
[V:1] A4G2F2 | 
[V:2] f4d4 | 
[V:3] c4B2A2 | 
[V:4] F8 | 
[V:1] E6F2 | 
[V:2] c4A4- | 
[V:3] c8 | 
[V:4] z8 | 
[V:1] E2C2D4 | 
[V:2] A4G4 | 
[V:3] z8 | 
[V:4] c4B2A2 | 
[V:1] C8 | 
[V:2] A4F4- | 
[V:3] z4A2B2 | 
[V:4] c4z4 | 
[V:1] z8 | 
[V:2] F8 | 
[V:3] c4A4 | 
[V:4] A2B2c4 | 
[V:1] c6=B2 | 
[V:2] A2B2c4 | 
[V:3] F4z4 | 
[V:4] A4F4 | 
[V:1] A8 | 
[V:2] F4z4 | 
[V:3] f8 | 
[V:4] z8 | 
[V:1] G8 | 
[V:2] c4G4 | 
[V:3] e4d4 | 
[V:4] z8 | 
[V:1] G4A4 | 
[V:2] e4d4 | 
[V:3] c4f4 | 
[V:4] z8 | 
[V:1] G4F4 | 
[V:2] e2g2a2f2 | 
[V:3] e4d4 | 
[V:4] z8 | 
[V:1] E8 | 
[V:2] g8 | 
[V:3] c8 | 
[V:4] z8 | 
[V:1] D8 | 
[V:2] a6f2 | 
[V:3] z8 | 
[V:4] f8 | 
[V:1] C4F4 | 
[V:2] g4a2g2 | 
[V:3] z8 | 
[V:4] e4d4 | 
[V:1] G4A4 | 
[V:2] e4d4 | 
[V:3] z8 | 
[V:4] c4f4 | 
[V:1] G2c2=B2AB | 
[V:2] z2g4f2 | 
[V:3] z8 | 
[V:4] e4d4 | 
[V:1] c8 | 
[V:2] g8 | 
[V:3] z4c4 | 
[V:4] c8 | 
[V:1] z8 | 
[V:2] a4e4 | 
[V:3] c4c4 | 
[V:4] A8 | 
[V:1] A8 | 
[V:2] f8 | 
[V:3] c4c4 | 
[V:4] F8 | 
[V:1] G8 | 
[V:2] e8 | 
[V:3] c4c4 | 
[V:4] C8 | 
[V:1] A6G2 | 
[V:2] A2B2c4 | 
[V:3] c4A2B2 | 
[V:4] F8 | 
[V:1] E8 | 
[V:2] z4A2B2 | 
[V:3] c4A4 | 
[V:4] A2B2c4 | 
[V:1] F8 | 
[V:2] c6A2- | 
[V:3] F4z4 | 
[V:4] A4F4 | 
[V:1] E4D4 | 
[V:2] A2c2G4 | 
[V:3] c4B2A2 | 
[V:4] z8 | 
[V:1] E4F2G2- | 
[V:2] C8 | 
[V:3] c8 | 
[V:4] z8 | 
[V:1] G2F2D2C2 | 
[V:2] C4G4 | 
[V:3] z8 | 
[V:4] c4B2A2 | 
[V:1] C4z4 | 
[V:2] A4F4 | 
[V:3] z8 | 
[V:4] c8 | 
[V:1] F4G4 | 
[V:2] c4B2A2 | 
[V:3] A4G4 | 
[V:4] z8 | 
[V:1] A4c4- | 
[V:2] c4z2f2- | 
[V:3] F8 | 
[V:4] z8 | 
[V:1] c4=B4 | 
[V:2] f2e2e2d2 | 
[V:3] z8 | 
[V:4] A4G4 | 
[V:1] c4A4- | 
[V:2] f4d2f2- | 
[V:3] z8 | 
[V:4] F8 | 
[V:1] A4G2F2 | 
[V:2] f2e2d4 | 
[V:3] A4B4 | 
[V:4] z4G4 | 
[V:1] E4A4- | 
[V:2] c4F4 | 
[V:3] c8 | 
[V:4] A4A4 | 
[V:1] A2F2F4- | 
[V:2] c8- | 
[V:3] A4A2B2 | 
[V:4] F4F4 | 
[V:1] F2E2E2D2 | 
[V:2] c8 | 
[V:3] G4G4 | 
[V:4] C4C4 | 
[V:1] F8- | 
[V:2] A8 | 
[V:3] F8- | 
[V:4] c8- | 
[V:1] F8 |]  
[V:2] c8 |]  
[V:3] F8 |]  
[V:4] c8 |]  



